public/img/10.svg

<svg width="327" height="275" viewBox="0 0 327 275" fill="none" xmlns="http://www.w3.org/2000/svg">
<g opacity="0.7">
<g clip-path="url(#clip0)">
<mask id="mask0" mask-type="alpha" maskUnits="userSpaceOnUse" x="-64" y="-117" width="536" height="536">
<path fill-rule="evenodd" clip-rule="evenodd" d="M29.3158 126.063C26.4907 134.372 24.1747 142.83 22.3379 151.27L131.22 43.5365C129.198 43.505 127.175 43.4553 125.155 43.4056C121.857 43.3244 118.566 43.2434 115.3 43.2426L29.3158 126.063ZM38.3449 103.816L98.0231 44.4771C89.5427 45.9548 81.4553 49.077 74.0911 55.4372C58.9792 68.489 47.192 85.3278 38.3449 103.816ZM142.968 43.3772L19.1229 169.251C18.3164 174.84 17.5978 180.514 17.0086 186.222L165.375 38.7161C158.173 41.749 150.633 42.9591 142.968 43.3772ZM202.12 2.18391L270.662 -65.9606C267.595 -65.881 264.467 -65.5114 261.277 -64.8223C239.034 -60.0174 225.669 -37.346 211.918 -14.0195C208.712 -8.58131 205.485 -3.10745 202.12 2.18391ZM282.768 -64.7604L15.9546 198.556C15.5196 205.088 15.2918 211.613 15.3332 218.057L289.163 -62.8832C287.068 -63.6415 284.936 -64.2713 282.768 -64.7604ZM296.904 -59.4292L15.7361 229.944C15.9287 232.988 16.1928 236.001 16.5354 238.975L308.188 -51.9983C304.576 -54.8453 300.813 -57.3529 296.904 -59.4292ZM311.91 -48.9004L18.1849 249.844C19.0262 254.242 20.0727 258.523 21.3497 262.655L323.232 -37.4039C319.66 -41.5418 315.883 -45.4185 311.91 -48.9004ZM332.249 -25.8727L24.2521 270.795C26.1889 275.54 28.4888 280.037 31.1963 284.228L337.208 -18.5568C335.617 -21.0226 333.963 -23.4681 332.249 -25.8727ZM340.327 -13.5747L38.275 293.427C38.4199 293.585 38.5656 293.743 38.7121 293.9C40.8068 296.146 43.0244 298.21 45.3525 300.104L347.679 -0.470049C347.308 -1.2358 346.92 -1.99513 346.515 -2.74778C344.587 -6.32876 342.523 -9.95876 340.327 -13.5747ZM350.766 7.13697L50.0837 303.618C54.4216 306.558 59.0757 308.988 63.9788 310.965L352.736 14.2031C352.19 11.8044 351.538 9.44719 350.766 7.13697ZM354.306 23.2646L72.5054 313.885C75.166 314.648 77.8826 315.298 80.646 315.843L355.268 41.9053C355.303 35.5391 355.057 29.2998 354.306 23.2646ZM355.114 49.3227L91.2655 317.413C96.0059 317.895 100.843 318.116 105.734 318.107L353.949 71.3036C354.043 69.6732 354.141 68.0434 354.238 66.4155C354.581 60.678 354.923 54.9632 355.114 49.3227ZM353.192 91.0115L117.911 317.638C125.553 317.077 133.244 316.036 140.83 314.639L353.542 104.17C353.252 99.8309 353.158 95.4366 353.192 91.0115ZM354.475 112.814L160.776 309.687C175.383 303.818 187.458 291.048 199.624 278.183C212.1 264.99 224.671 251.697 240.162 245.644L358.033 128.456C356.528 123.219 355.283 117.997 354.475 112.814ZM361.079 138.188L256.02 241.87C260.942 241.337 265.943 241.296 270.981 241.567L363.873 146.263C362.919 143.574 361.979 140.881 361.079 138.188ZM369.888 163.237L291.491 243.922C293.532 244.237 295.571 244.563 297.602 244.888C299.578 245.205 301.549 245.52 303.51 245.824L373.8 175.697C372.65 171.577 371.314 167.42 369.888 163.237ZM376.014 184.779L314.503 247.34C320.963 248.078 327.267 248.447 333.314 248.027L377.624 203.984C378.014 197.741 377.345 191.322 376.014 184.779Z" fill="white"/>
</mask>
<g mask="url(#mask0)">
<path d="M137.101 109.636H119.906V83.7529H168.776V185.113H189.048V210.453H117.372V185.113H137.101V109.636ZM253.228 81.3999C266.743 81.3999 277.965 85.3215 286.894 93.1649C295.944 101.008 300.469 111.627 300.469 125.021V169.547C300.469 182.941 295.944 193.56 286.894 201.403C277.965 209.246 266.743 213.168 253.228 213.168C239.593 213.168 228.25 209.246 219.2 201.403C210.15 193.56 205.625 182.941 205.625 169.547V125.021C205.625 111.627 210.15 101.008 219.2 93.1649C228.25 85.3215 239.593 81.3999 253.228 81.3999ZM253.228 184.208C258.055 184.208 261.977 182.881 264.993 180.226C268.131 177.571 269.699 173.831 269.699 169.004V125.745C269.699 120.798 268.131 116.997 264.993 114.342C261.977 111.567 258.055 110.179 253.228 110.179C248.281 110.179 244.239 111.567 241.101 114.342C238.085 116.997 236.576 120.798 236.576 125.745V169.004C236.576 173.951 238.085 177.752 241.101 180.407C244.239 182.941 248.281 184.208 253.228 184.208Z" fill="white"/>
</g>
</g>
</g>
<defs>
<clipPath id="clip0">
<rect x="0.867188" width="325.24" height="274.079" fill="white"/>
</clipPath>
</defs>
</svg>

<svg width="327" height="275" fill="none" xmlns="http://www.w3.org/2000/svg"><g clip-path="url(#clip0)" opacity=".7"><mask id="a" maskUnits="userSpaceOnUse" x="-64" y="-117" width="536" height="536"><path fill-rule="evenodd" clip-rule="evenodd" d="M29.316 126.063a231.113 231.113 0 00-6.978 25.207L131.22 43.536a672.583 672.583 0 01-6.065-.13c-3.298-.082-6.589-.163-9.855-.163l-85.984 82.82zm9.029-22.247l59.678-59.339c-8.48 1.478-16.568 4.6-23.932 10.96-15.112 13.052-26.899 29.89-35.746 48.379zm104.623-60.439L19.123 169.251a423.294 423.294 0 00-2.114 16.971L165.375 38.716c-7.202 3.033-14.742 4.243-22.407 4.661zM202.12 2.184l68.542-68.145a50.57 50.57 0 00-9.385 1.139c-22.243 4.805-35.608 27.476-49.359 50.803-3.206 5.438-6.433 10.912-9.798 16.203zm80.648-66.944L15.955 198.556c-.435 6.532-.663 13.057-.622 19.501l273.83-280.94a53.149 53.149 0 00-6.395-1.877zm14.136 5.33L15.736 229.945c.193 3.044.457 6.057.8 9.031L308.187-51.998c-3.612-2.847-7.375-5.355-11.284-7.431zM311.91-48.9L18.185 249.844c.841 4.398 1.888 8.679 3.165 12.811L323.232-37.404c-3.572-4.138-7.349-8.014-11.322-11.496zm20.339 23.027L24.252 270.795c1.937 4.745 4.237 9.242 6.944 13.433L337.208-18.557a191.266 191.266 0 00-4.959-7.316zm8.078 12.298L38.275 293.427c.145.158.29.316.437.473a66.162 66.162 0 006.64 6.204L347.68-.47a60.193 60.193 0 00-1.164-2.278 240.753 240.753 0 00-6.188-10.827zm10.439 20.712L50.084 303.618c4.338 2.94 8.992 5.37 13.895 7.347L352.736 14.203a74.33 74.33 0 00-1.97-7.066zm3.54 16.128l-281.8 290.62a99.06 99.06 0 008.14 1.958L355.268 41.905c.035-6.366-.211-12.605-.962-18.64zm.808 26.058L91.266 317.413c4.74.482 9.577.703 14.468.694L353.949 71.304c.094-1.63.192-3.26.289-4.889.343-5.737.685-11.452.876-17.092zm-1.922 41.688L117.911 317.639c7.642-.561 15.333-1.602 22.919-2.999l212.712-210.47c-.29-4.34-.384-8.733-.35-13.159zm1.283 21.803L160.776 309.687c14.607-5.869 26.682-18.639 38.848-31.504 12.476-13.193 25.047-26.486 40.538-32.539l117.871-117.188c-1.505-5.237-2.75-10.459-3.558-15.642zm6.604 25.374L256.02 241.87c4.922-.533 9.923-.574 14.961-.303l92.892-95.304a465 465 0 01-2.794-8.075zm8.809 25.049l-78.397 80.685c2.041.315 4.08.641 6.111.966 1.976.317 3.947.632 5.908.936l70.29-70.127c-1.15-4.12-2.486-8.277-3.912-12.46zm6.126 21.542l-61.511 62.561c6.46.738 12.764 1.107 18.811.687l44.31-44.043c.39-6.243-.279-12.662-1.61-19.205z" fill="#fff"/></mask><g mask="url(#a)"><path d="M137.101 109.636h-17.195V83.753h48.87v101.36h20.272v25.34h-71.676v-25.34h19.729v-75.477zM253.228 81.4c13.515 0 24.737 3.921 33.666 11.765 9.05 7.843 13.575 18.462 13.575 31.856v44.526c0 13.394-4.525 24.013-13.575 31.856-8.929 7.843-20.151 11.765-33.666 11.765-13.635 0-24.978-3.922-34.028-11.765-9.05-7.843-13.575-18.462-13.575-31.856v-44.526c0-13.394 4.525-24.013 13.575-31.856 9.05-7.844 20.393-11.765 34.028-11.765zm0 102.808c4.827 0 8.749-1.327 11.765-3.982 3.138-2.655 4.706-6.395 4.706-11.222v-43.259c0-4.947-1.568-8.748-4.706-11.403-3.016-2.775-6.938-4.163-11.765-4.163-4.947 0-8.989 1.388-12.127 4.163-3.016 2.655-4.525 6.456-4.525 11.403v43.259c0 4.947 1.509 8.748 4.525 11.403 3.138 2.534 7.18 3.801 12.127 3.801z" fill="#fff"/></g></g><defs><clipPath id="clip0"><path fill="#fff" d="M.867 0h325.24v274.079H.867z"/></clipPath></defs></svg>
